X: 679
T: Jeff Davis
B: jims roots
M:4/4
L:1/8
Q: 1/4=100
K:C
V:1 
%S:Trad
%R:Reel
"Am"c2 c2 d2 d2 | e2 e2 dc A2 | ABcd eag^f |[1 "E"edcB "Am"A2:|[2 "E"edcB "Am"A2 eg||
"Am"a2 eg a2 eg | aged BAeg | a2eg a2eg | agec "E"d2eg |
"Am"a2 eg a2 eg | aged cBA2 | ABcd eag^f | "E"edcB "Am"A2 |]
% abcbook-tune_id 6298c25d2536322a45930eee


% abcbook-boost 0
% abcbook-tablature 
% abcbook-transpose 
% abcbook-lastupdated 1654178399101
% abcbook-soundfonts 
% abcbook-repeats 1


